sites/sveltevietnam.dev/src/routes/(site)/_page/sections/intro/images/title.svg

<svg width="285" height="105" viewBox="0 0 285 105" fill="none" xmlns="http://www.w3.org/2000/svg">
<path d="M34.9308 14.5464C34.094 14.5464 33.1809 13.6255 33.1809 12.7813C33.1809 11.6301 34.094 11.0162 34.9308 11.0162H47.5621V0.578953H34.9308C28.2349 0.578953 22.8323 6.02779 22.8323 12.7813C22.8323 19.5348 28.2349 24.9836 34.9308 24.9836H36.5288C37.3658 24.9836 38.2789 25.751 38.2789 26.5952C38.2789 27.7464 37.3658 28.3603 36.5288 28.3603H24.0498V38.7976H36.5288C43.2249 38.7976 48.6274 33.3487 48.6274 26.5952C48.6274 19.8417 43.2249 14.5464 36.5288 14.5464H34.9308ZM74.1834 38.4906L96.3262 0.271973H83.6949L74.1834 19.3813L64.6718 0.271973H52.0405L74.1834 38.4906ZM139.462 0.425465H112.602H101.568V11.5534V14.0092V25.0603V27.5162V38.6441H112.602H139.462V27.5162H112.602V25.0603H133.147V14.0092H112.602V11.5534H139.462V0.425465ZM158.673 0.425465H147.64V27.5162V38.6441H158.673H185.534V27.5162H158.673V0.425465ZM210.374 0.502205H199.341H186.634V10.0185H199.341V38.7208H210.374V10.0185H223.082V0.502205H210.374ZM267.05 0.425465H240.19H229.156V11.5534V14.0092V25.0603V27.5162V38.6441H240.19H267.05V27.5162H240.19V25.0603H260.735V14.0092H240.19V11.5534H267.05V0.425465ZM22.39 104.77L44.533 66.551H31.9016L22.39 85.6603L12.8785 66.551H0.247192L22.39 104.77ZM59.2105 66.7813H49.775V105H59.2105V66.7813ZM107.658 66.7045H80.7975H69.7641V77.8324V80.2883V91.3394V93.7952V104.923H80.7975H107.658V93.7952H80.7975V91.3394H101.342V80.2883H80.7975V77.8324H107.658V66.7045ZM135.62 66.7813H124.586H111.879V76.2976H124.586V105H135.62V76.2976H148.327V66.7813H135.62ZM181.262 88.3464L165.435 66.7813H154.402V105H165.435V84.279L181.262 105H192.296V66.7813H181.262V88.3464ZM240.83 105L225.003 66.7813H215.568L198.142 105H209.176L210.622 101.853H228.351L229.797 105H240.83ZM219.753 82.6673L223.938 92.2603H215.187L219.753 82.6673ZM265.714 77.8324L257.801 66.7045H246.768V104.923H257.801V81.5929L265.714 92.1836L273.628 81.5929V104.923H284.661V66.7045H273.628L265.714 77.8324Z" fill="currentcolor"/>
</svg>

<svg xmlns="http://www.w3.org/2000/svg" fill="none" viewBox="0 0 285 105">
  <path fill="currentcolor" d="M35 14.5c-1 0-1.8-.9-1.8-1.7 0-1.2.9-1.8 1.7-1.8h12.7V.6H34.9A12 12 0 0 0 23 12.8 12 12 0 0 0 35 25h1.6c.9 0 1.8.8 1.8 1.6 0 1.1-1 1.8-1.8 1.8H24v10.4h12.5a12.1 12.1 0 0 0 0-24.3H35Zm39.2 24L96.3.3H83.7l-9.5 19-9.5-19H52l22.2 38.2Zm65.3-38h-37.9v38.1h37.9v-11h-26.9V25h20.5V14h-20.5v-2.5h26.9V.4Zm19.2 0h-11v38.1h37.8v-11h-26.8V.3Zm51.7 0h-23.8V10h12.7v28.7h11V10h12.8V.5h-12.7Zm56.7 0h-38v38.1h38v-11h-27V25h20.6V14h-20.5v-2.5H267V.4ZM22.4 104.7l22.1-38.2H32l-9.5 19-9.5-19H.2l22.2 38.2Zm36.8-38h-9.4V105h9.4V66.8Zm48.5-.1H69.8v38.2h37.9v-11H80.8v-2.5h20.5v-11H80.8v-2.5h26.9V66.7Zm28 0h-23.9v9.6h12.7V105h11V76.3h12.7v-9.5h-12.7Zm45.6 21.6-15.9-21.5h-11V105h11V84.3l15.9 20.7h11V66.8h-11v21.5Zm59.5 16.7L225 66.8h-9.4L198 105h11l1.5-3.1h17.8l1.4 3.1h11Zm-21-22.3 4.1 9.6h-8.7l4.6-9.6Zm46-4.9-8-11.1h-11v38.2h11V81.6l8 10.6 7.8-10.6v23.3h11V66.7h-11l-7.9 11.1Z"/>
</svg>
